assets/images/icons/src/code-fork.svg

<?xml version="1.0" encoding="utf-8"?>
<!-- Generated by IcoMoon.io -->
<!DOCTYPE svg PUBLIC "-//W3C//DTD SVG 1.1//EN" "http://www.w3.org/Graphics/SVG/1.1/DTD/svg11.dtd">
<svg version="1.1" xmlns="http://www.w3.org/2000/svg" xmlns:xlink="http://www.w3.org/1999/xlink" width="8" height="14" viewBox="0 0 8 14">
<path fill="#444444" d="M2.25 11.5q0-0.312-0.219-0.531t-0.531-0.219-0.531 0.219-0.219 0.531 0.219 0.531 0.531 0.219 0.531-0.219 0.219-0.531zM2.25 2.5q0-0.312-0.219-0.531t-0.531-0.219-0.531 0.219-0.219 0.531 0.219 0.531 0.531 0.219 0.531-0.219 0.219-0.531zM7.25 3.5q0-0.312-0.219-0.531t-0.531-0.219-0.531 0.219-0.219 0.531 0.219 0.531 0.531 0.219 0.531-0.219 0.219-0.531zM8 3.5q0 0.406-0.203 0.754t-0.547 0.543q-0.016 2.242-1.766 3.234-0.531 0.297-1.586 0.633-1 0.312-1.324 0.555t-0.324 0.781v0.203q0.344 0.195 0.547 0.543t0.203 0.754q0 0.625-0.438 1.062t-1.062 0.438-1.062-0.438-0.438-1.062q0-0.406 0.203-0.754t0.547-0.543v-6.406q-0.344-0.195-0.547-0.543t-0.203-0.754q0-0.625 0.438-1.062t1.062-0.438 1.062 0.438 0.438 1.062q0 0.406-0.203 0.754t-0.547 0.543v3.883q0.422-0.203 1.203-0.445 0.43-0.133 0.684-0.23t0.551-0.242 0.461-0.309 0.316-0.398 0.219-0.543 0.066-0.715q-0.344-0.195-0.547-0.543t-0.203-0.754q0-0.625 0.438-1.062t1.062-0.438 1.062 0.438 0.438 1.062z"></path>
</svg>

<svg xmlns="http://www.w3.org/2000/svg" width="8" height="14" viewBox="0 0 8 14"><path fill="#444" d="M2.25 11.5q0-.312-.219-.531T1.5 10.75t-.531.219-.219.531.219.531.531.219.531-.219.219-.531zm0-9q0-.312-.219-.531T1.5 1.75t-.531.219T.75 2.5t.219.531.531.219.531-.219.219-.531zm5 1q0-.312-.219-.531T6.5 2.75t-.531.219-.219.531.219.531.531.219.531-.219.219-.531zm.75 0q0 .406-.203.754t-.547.543q-.016 2.242-1.766 3.234-.531.297-1.586.633-1 .312-1.324.555T2.25 10v.203q.344.195.547.543T3 11.5q0 .625-.438 1.062T1.5 13t-1.062-.438T0 11.5q0-.406.203-.754t.547-.543V3.797q-.344-.195-.547-.543T0 2.5q0-.625.438-1.062T1.5 1t1.062.438T3 2.5q0 .406-.203.754t-.547.543V7.68q.422-.203 1.203-.445.43-.133.684-.23t.551-.242.461-.309.316-.398.219-.543.066-.715q-.344-.195-.547-.543T5 3.501q0-.625.438-1.062T6.5 2.001t1.062.438T8 3.501z"/></svg>
